X:1
T:Saving Health, 87.87.887
T:Saving Health, 87.87.887
T:Etliche Christliche Lyeder, 1524
T:Public Domain Courtesy of the Cyber Hymnal™
C:Etliche Christliche Lyeder, 1524
Z:Public Domain
Z:Courtesy of the Cyber Hymnal™
%%score ( 1 2 ) ( 3 4 )
L:1/8
Q:1/4=110
M:none
K:Eb
V:1 treble 
V:2 treble 
V:3 bass 
V:4 bass 
V:1
 [DB]2 | [EB]2 B2 [EB]2 [F_d]2 | [Ec]2 B2 !fermata![CA]2 [FB]2 | [EG]2 EF [EG]2 [E=A]2 | %4
 [DB]2 [Fc]2 !fermata![DB]2 [FB]2 x | [EB]2 B2 [EB]2 [F_d]2 | c2 B2 !fermata!A2 [FB]2 | %7
 [EG]2 [CE][DF] [EG]2 [E=A]2 | [DB]2 c2 !fermata![DB]2 [FB]2 | [Ee]2 d2 [Ec]2 [Fd]2 | %10
 ed c2 !fermata![DB]2 [FB]2 | [Ee]2 B2 [Ec]2 GA | [GB]2 [FA]2 !fermata![=EG]2 E2 | %13
 [DF]2 A2 [DG]2 [CF]2 x | [G,C]2 [B,D]2 !fermata![B,E]2 |] %15
V:2
 x2 | x2 E_D x4 | x2 FE x4 | x2 E2 x4 | x9 | x2 E_D x4 | G=E FG A2 x2 | x8 | x2 FE x4 | x2 GF x4 | %10
 E2 FE x4 | x2 GF x G2 x | x6 =E2 | x2 FE x5 | x6 |] %15
V:3
 [B,,F,]2 | [E,G,]2 [F,A,]2 [G,B,]2 [F,A,][G,B,] | [A,C][C,A,] [_D,A,][E,G,] [A,,A,]2 [=D,F,]2 | %3
 [E,B,]2 [G,B,][F,A,] [E,B,]2 [C,C]2 | B,3 z =A, !fermata![B,,B,]2 B,_A, | %5
 [E,G,]2 [F,A,]2 [G,B,]2 [F,A,]2 | G,2 C2 !fermata![F,C]2 [D,B,]2 | %7
 [E,B,]2 [G,B,][F,A,] [E,G,][D,F,] [C,E,]2 | [B,,F,]2 [F,,=A,]2 !fermata![B,,B,]2 [D,B,]2 | %9
 [C,C]2 [G,B,]2 [A,C][G,B,] [F,A,]2 | CB, [F,=A,]2 !fermata![B,,B,]2 [B,D]2 | C2 ED [A,C]2 B,C | %12
 [=E,C]2 C=B, !fermata![C,C]2 G,=A, | [B,,B,]2 [F,,C]2 B,3 z A, | %14
 [C,E,]2 [B,,F,]2 !fermata![E,G,]2 |] %15
V:4
 x2 | x8 | x8 | x8 | G,2 (F,2 x D,2) x2 | x8 | =E,C, D,E, x4 | x8 | x8 | x8 | C,2 x6 | %11
 C2 G,2 x E,2 x | x2 F,2 x C,2 x | x4 G,,2 A,,2 x | x6 |] %15

